icons/rust/rust-plain.svg

<svg xmlns="http://www.w3.org/2000/svg" viewBox="0 0 128 128"><path d="M62.271 10.88c-.189.11-.982 1.248-1.763 2.529-1.96 3.217-1.982 3.219-4.615.448-1.713-1.802-2.127-2.132-2.679-2.128-.359.002-.812.124-1.008.271-.195.147-.748 1.317-1.228 2.6-1.099 2.939-1.152 3.034-1.761 3.151-.375.071-1.097-.331-2.828-1.574-1.278-.919-2.532-1.67-2.786-1.67-1.054 0-1.351.576-1.853 3.593-.638 3.836-.616 3.823-4.074 2.252-1.396-.633-2.72-1.152-2.943-1.152-.223 0-.646.24-.939.533-.532.533-.533.535-.388 3.468l.146 2.936-.555.297c-.492.263-.831.231-3.009-.284-2.843-.671-3.443-.653-4.019.122l-.421.566.565 2.421c.31 1.331.609 2.613.665 2.848.055.234-.04.609-.212.832-.284.367-.586.4-3.217.36-4.453-.07-4.706.312-2.866 4.328.585 1.275 1.064 2.433 1.064 2.572 0 .734-.585 1.001-3.098 1.411-1.406.229-2.628.417-2.716.417-.088 0-.352.192-.586.426-.765.765-.548 1.483 1.187 3.932 2.161 3.05 2.157 3.061-1.413 4.427-4.06 1.553-4.142 1.936-1.051 4.868 2.879 2.73 2.882 2.69-.377 4.739-2.469 1.551-2.507 1.588-2.57 2.429-.076 1.023-.058 1.041 2.89 2.842 2.915 1.78 2.915 1.834.054 4.541-3.077 2.91-2.982 3.335 1.081 4.868 3.55 1.339 3.555 1.355 1.39 4.405-1.227 1.729-1.618 2.449-1.618 2.983 0 .999.52 1.254 3.627 1.776 2.617.441 3.2.7 3.2 1.422 0 .148-.48 1.316-1.067 2.594-1.826 3.977-1.618 4.308 2.704 4.308 4.025 0 3.918-.123 3.051 3.507-.654 2.736-.664 3.26-.072 3.851.453.454 1.307.403 3.978-.236 2.04-.487 2.398-.521 2.871-.268l.54.289-.146 2.935c-.145 2.934-.144 2.936.388 3.469.293.293.722.533.952.533.23 0 1.554-.516 2.943-1.147 3.447-1.565 3.425-1.578 4.061 2.246.504 3.031.798 3.594 1.874 3.594.267 0 1.494-.72 2.728-1.6 2.167-1.546 2.729-1.788 3.306-1.421.149.094.727 1.364 1.284 2.822.819 2.144 1.119 2.702 1.575 2.92.868.416 1.405.082 3.445-2.14 2.463-2.683 2.564-2.67 4.575.589 2.221 3.598 2.796 3.59 5.073-.073 1.962-3.156 1.939-3.154 4.591-.384 1.761 1.838 2.136 2.131 2.73 2.131.379 0 .832-.142 1.005-.316.174-.174.75-1.459 1.28-2.855.53-1.397 1.079-2.613 1.221-2.703.561-.357 1.142-.106 3.306 1.43 1.274.905 2.473 1.6 2.758 1.6 1.058 0 1.44-.751 1.88-3.703.376-2.517.452-2.758.947-3.009.487-.247.779-.164 3.063.873 1.389.63 2.713 1.146 2.943 1.146.23 0 .666-.247.967-.549l.549-.548-.151-2.815c-.144-2.688-.131-2.832.298-3.22.441-.399.486-.397 2.952.166 2.986.682 3.543.7 4.104.139.548-.548.542-.668-.208-3.831-.841-3.548-.954-3.422 3.088-3.422 2.755 0 3.062-.039 3.413-.426.586-.648.447-1.39-.732-3.903-.595-1.266-1.078-2.418-1.074-2.56.02-.747.607-1.002 3.32-1.443 1.66-.269 2.902-.581 3.127-.784.754-.681.477-1.567-1.244-3.98-2.157-3.024-2.148-3.053 1.306-4.326 4.136-1.524 4.254-2.032 1.159-4.973-2.867-2.724-2.868-2.709.272-4.637 3.796-2.33 3.802-2.855.067-5.173-3.212-1.993-3.21-1.965-.331-4.699 3.088-2.934 3.004-3.318-1.057-4.871-3.584-1.371-3.595-1.405-1.417-4.394 1.297-1.78 1.618-2.371 1.618-2.981 0-1.066-.478-1.305-3.622-1.813-2.627-.424-3.205-.682-3.205-1.429 0-.142.48-1.285 1.067-2.542 1.149-2.461 1.31-3.446.66-4.035-.349-.316-.817-.361-3.321-.32-2.62.044-2.955.007-3.318-.358-.397-.399-.393-.455.227-3.042.76-3.17.763-3.247.138-3.834-.634-.596-1.03-.586-3.941.099-2.121.5-2.472.533-2.954.275l-.547-.293.151-2.926.152-2.925-.547-.547c-.301-.301-.728-.547-.95-.547-.221 0-1.538.523-2.926 1.161-2.318 1.067-2.567 1.138-3.068.876-.5-.262-.583-.52-1.01-3.127-.493-3.016-.798-3.603-1.869-3.603-.254 0-1.513.755-2.798 1.678-2.11 1.516-2.393 1.659-2.919 1.476-.435-.152-.688-.483-.997-1.306-.229-.606-.667-1.774-.975-2.595-.622-1.656-.969-2.027-1.901-2.027-.52 0-.991.374-2.679 2.127-2.653 2.756-2.663 2.755-4.614-.445-.78-1.279-1.595-2.421-1.812-2.537-.488-.262-1.062-.261-1.511.002m2.418 9.635c2.311 1.645 1.082 5.512-1.752 5.512-2.75 0-4.135-3.313-2.171-5.194 1.108-1.062 2.697-1.191 3.923-.318m-2.906 10.214c1.515.576 2.137.23 5.596-3.104l2.599-2.506 1.1.146c3.45.458 10.312 3.472 14.255 6.261 3.623 2.564 8.438 7.786 10.49 11.377l.439.769-1.944 4.38c-1.07 2.409-1.945 4.633-1.945 4.944 0 .717.47 1.851.923 2.226.191.159 2.006 1.033 4.033 1.942l3.684 1.654.145.937c.187 1.221.212 4.22.042 5.072l-.133.666h-2.103c-2.439 0-2.251-.218-2.383 2.774-.096 2.169-.62 3.368-1.812 4.144-1.942 1.267-5.149 1.037-6.509-.466-.209-.231-.615-1.392-.903-2.581-.841-3.473-1.971-5.423-4.241-7.32-.717-.599-1.303-1.158-1.303-1.243 0-.084.788-.748 1.752-1.473 3.51-2.646 5.528-5.726 5.75-8.777.423-5.819-4.213-11.243-11.109-13.001-1.635-.417-2.333-.43-22.56-.43-11.48 0-20.873-.075-20.873-.166 0-.215 2.551-2.691 4.054-3.933 4.127-3.412 9.488-6.097 15.04-7.531l1.92-.497 2.728 2.766c1.501 1.521 2.972 2.857 3.268 2.97M27.432 48.526c1.257.823 1.772 2.891 1.03 4.134-1.148 1.924-4.056 2.005-5.205.145-1.671-2.702 1.547-6.001 4.175-4.279m74.05.105c3.288 2.005.74 6.937-2.78 5.38-2.35-1.04-2.425-4.252-.127-5.424.959-.489 2.061-.472 2.907.044M37.12 60.907v12.266H26.276l-.43-1.866c-.846-3.675-1.202-7.477-.989-10.591l.149-2.188 3.728-1.672c2.339-1.048 3.843-1.847 4.037-2.144.848-1.293.767-2.217-.423-4.845l-.556-1.227h5.328v12.267m31.22-11.733c2.322.604 3.549 1.833 3.552 3.556.002 1.265-.625 2.059-2.18 2.761-1.101.498-1.276.51-8.219.578l-7.093.068v-7.284h6.355c4.964 0 6.625.07 7.585.321m-2.396 17.602c1.151.32 2.512 1.32 3.21 2.359.733 1.092 1.162 2.512 2.178 7.216.858 3.976 1.41 5.276 2.956 6.968 1.915 2.095 1.471 2.014 11.037 2.014 4.581 0 8.328.073 8.328.163 0 .161-3.155 3.891-3.291 3.891-.039 0-1.687-.345-3.662-.767-5.577-1.191-5.778-1.051-7.058 4.926l-.823 3.84-.743.366c-1.24.612-5.27 1.872-7.359 2.302-3.452.71-7.209.95-10.511.671-5.629-.477-13.083-2.661-13.374-3.92-.062-.267-.437-1.995-.832-3.841-.396-1.846-.877-3.597-1.069-3.891-.923-1.408-1.894-1.495-6.164-.55-1.617.358-3.028.65-3.136.65-.203 0-3.204-3.47-3.204-3.704 0-.073 7.128-.158 15.84-.188l15.84-.054.057-5.627c.04-3.973-.015-5.714-.187-5.92-.192-.232-1.214-.293-4.91-.293H54.4V66.56l5.387.001c2.962.001 5.733.098 6.157.215M41.536 92.365c2.519 1.535 1.311 5.557-1.668 5.554-3.055-.002-4.187-3.987-1.584-5.575.861-.525 2.374-.515 3.252.021m46.126.168c1.235.905 1.646 2.788.881 4.042-2.009 3.295-7.033.676-5.355-2.791.825-1.703 3.018-2.317 4.474-1.251" fill-rule="evenodd"/></svg>

<svg xmlns="http://www.w3.org/2000/svg" height="128" width="128" viewBox="0 0 128 128"><path d="M62.271 10.880 C 62.082 10.990,61.289 12.128,60.508 13.409 C 58.548 16.626,58.526 16.628,55.893 13.857 C 54.180 12.055,53.766 11.725,53.214 11.729 C 52.855 11.731,52.402 11.853,52.206 12.000 C 52.011 12.147,51.458 13.317,50.978 14.600 C 49.879 17.539,49.826 17.634,49.217 17.751 C 48.842 17.822,48.120 17.420,46.389 16.177 C 45.111 15.258,43.857 14.507,43.603 14.507 C 42.549 14.507,42.252 15.083,41.750 18.100 C 41.112 21.936,41.134 21.923,37.676 20.352 C 36.280 19.719,34.956 19.200,34.733 19.200 C 34.510 19.200,34.087 19.440,33.794 19.733 C 33.262 20.266,33.261 20.268,33.406 23.201 L 33.552 26.137 32.997 26.434 C 32.505 26.697,32.166 26.665,29.988 26.150 C 27.145 25.479,26.545 25.497,25.969 26.272 L 25.548 26.838 26.113 29.259 C 26.423 30.590,26.722 31.872,26.778 32.107 C 26.833 32.341,26.738 32.716,26.566 32.939 C 26.282 33.306,25.980 33.339,23.349 33.299 C 18.896 33.229,18.643 33.611,20.483 37.627 C 21.068 38.902,21.547 40.060,21.547 40.199 C 21.547 40.933,20.962 41.200,18.449 41.610 C 17.043 41.839,15.821 42.027,15.733 42.027 C 15.645 42.027,15.381 42.219,15.147 42.453 C 14.382 43.218,14.599 43.936,16.334 46.385 C 18.495 49.435,18.491 49.446,14.921 50.812 C 10.861 52.365,10.779 52.748,13.870 55.680 C 16.749 58.410,16.752 58.370,13.493 60.419 C 11.024 61.970,10.986 62.007,10.923 62.848 C 10.847 63.871,10.865 63.889,13.813 65.690 C 16.728 67.470,16.728 67.524,13.867 70.231 C 10.790 73.141,10.885 73.566,14.948 75.099 C 18.498 76.438,18.503 76.454,16.338 79.504 C 15.111 81.233,14.720 81.953,14.720 82.487 C 14.720 83.486,15.240 83.741,18.347 84.263 C 20.964 84.704,21.547 84.963,21.547 85.685 C 21.547 85.833,21.067 87.001,20.480 88.279 C 18.654 92.256,18.862 92.587,23.184 92.587 C 27.209 92.587,27.102 92.464,26.235 96.094 C 25.581 98.830,25.571 99.354,26.163 99.945 C 26.616 100.399,27.470 100.348,30.141 99.709 C 32.181 99.222,32.539 99.188,33.012 99.441 L 33.552 99.730 33.406 102.665 C 33.261 105.599,33.262 105.601,33.794 106.134 C 34.087 106.427,34.516 106.667,34.746 106.667 C 34.976 106.667,36.300 106.151,37.689 105.520 C 41.136 103.955,41.114 103.942,41.750 107.766 C 42.254 110.797,42.548 111.360,43.624 111.360 C 43.891 111.360,45.118 110.640,46.352 109.760 C 48.519 108.214,49.081 107.972,49.658 108.339 C 49.807 108.433,50.385 109.703,50.942 111.161 C 51.761 113.305,52.061 113.863,52.517 114.081 C 53.385 114.497,53.922 114.163,55.962 111.941 C 58.425 109.258,58.526 109.271,60.537 112.530 C 62.758 116.128,63.333 116.120,65.610 112.457 C 67.572 109.301,67.549 109.303,70.201 112.073 C 71.962 113.911,72.337 114.204,72.931 114.204 C 73.310 114.204,73.763 114.062,73.936 113.888 C 74.110 113.714,74.686 112.429,75.216 111.033 C 75.746 109.636,76.295 108.420,76.437 108.330 C 76.998 107.973,77.579 108.224,79.743 109.760 C 81.017 110.665,82.216 111.360,82.501 111.360 C 83.559 111.360,83.941 110.609,84.381 107.657 C 84.757 105.140,84.833 104.899,85.328 104.648 C 85.815 104.401,86.107 104.484,88.391 105.521 C 89.780 106.151,91.104 106.667,91.334 106.667 C 91.564 106.667,92.000 106.420,92.301 106.118 L 92.850 105.570 92.699 102.755 C 92.555 100.067,92.568 99.923,92.997 99.535 C 93.438 99.136,93.483 99.138,95.949 99.701 C 98.935 100.383,99.492 100.401,100.053 99.840 C 100.601 99.292,100.595 99.172,99.845 96.009 C 99.004 92.461,98.891 92.587,102.933 92.587 C 105.688 92.587,105.995 92.548,106.346 92.161 C 106.932 91.513,106.793 90.771,105.614 88.258 C 105.019 86.992,104.536 85.840,104.540 85.698 C 104.560 84.951,105.147 84.696,107.860 84.255 C 109.520 83.986,110.762 83.674,110.987 83.471 C 111.741 82.790,111.464 81.904,109.743 79.491 C 107.586 76.467,107.595 76.438,111.049 75.165 C 115.185 73.641,115.303 73.133,112.208 70.192 C 109.341 67.468,109.340 67.483,112.480 65.555 C 116.276 63.225,116.282 62.700,112.547 60.382 C 109.335 58.389,109.337 58.417,112.216 55.683 C 115.304 52.749,115.220 52.365,111.159 50.812 C 107.575 49.441,107.564 49.407,109.742 46.418 C 111.039 44.638,111.360 44.047,111.360 43.437 C 111.360 42.371,110.882 42.132,107.738 41.624 C 105.111 41.200,104.533 40.942,104.533 40.195 C 104.533 40.053,105.013 38.910,105.600 37.653 C 106.749 35.192,106.910 34.207,106.260 33.618 C 105.911 33.302,105.443 33.257,102.939 33.298 C 100.319 33.342,99.984 33.305,99.621 32.940 C 99.224 32.541,99.228 32.485,99.848 29.898 C 100.608 26.728,100.611 26.651,99.986 26.064 C 99.352 25.468,98.956 25.478,96.045 26.163 C 93.924 26.663,93.573 26.696,93.091 26.438 L 92.544 26.145 92.695 23.219 L 92.847 20.294 92.300 19.747 C 91.999 19.446,91.572 19.200,91.350 19.200 C 91.129 19.200,89.812 19.723,88.424 20.361 C 86.106 21.428,85.857 21.499,85.356 21.237 C 84.856 20.975,84.773 20.717,84.346 18.110 C 83.853 15.094,83.548 14.507,82.477 14.507 C 82.223 14.507,80.964 15.262,79.679 16.185 C 77.569 17.701,77.286 17.844,76.760 17.661 C 76.325 17.509,76.072 17.178,75.763 16.355 C 75.534 15.749,75.096 14.581,74.788 13.760 C 74.166 12.104,73.819 11.733,72.887 11.733 C 72.367 11.733,71.896 12.107,70.208 13.860 C 67.555 16.616,67.545 16.615,65.594 13.415 C 64.814 12.136,63.999 10.994,63.782 10.878 C 63.294 10.616,62.720 10.617,62.271 10.880 M64.689 20.515 C 67.000 22.160,65.771 26.027,62.937 26.027 C 60.187 26.027,58.802 22.714,60.766 20.833 C 61.874 19.771,63.463 19.642,64.689 20.515 M61.783 30.729 C 63.298 31.305,63.920 30.959,67.379 27.625 L 69.978 25.119 71.078 25.265 C 74.528 25.723,81.390 28.737,85.333 31.526 C 88.956 34.090,93.771 39.312,95.823 42.903 L 96.262 43.672 94.318 48.052 C 93.248 50.461,92.373 52.685,92.373 52.996 C 92.373 53.713,92.843 54.847,93.296 55.222 C 93.487 55.381,95.302 56.255,97.329 57.164 L 101.013 58.818 101.158 59.755 C 101.345 60.976,101.370 63.975,101.200 64.827 L 101.067 65.493 98.964 65.493 C 96.525 65.493,96.713 65.275,96.581 68.267 C 96.485 70.436,95.961 71.635,94.769 72.411 C 92.827 73.678,89.620 73.448,88.260 71.945 C 88.051 71.714,87.645 70.553,87.357 69.364 C 86.516 65.891,85.386 63.941,83.116 62.044 C 82.399 61.445,81.813 60.886,81.813 60.801 C 81.813 60.717,82.601 60.053,83.565 59.328 C 87.075 56.682,89.093 53.602,89.315 50.551 C 89.738 44.732,85.102 39.308,78.206 37.550 C 76.571 37.133,75.873 37.120,55.646 37.120 C 44.166 37.120,34.773 37.045,34.773 36.954 C 34.773 36.739,37.324 34.263,38.827 33.021 C 42.954 29.609,48.315 26.924,53.867 25.490 L 55.787 24.993 58.515 27.759 C 60.016 29.280,61.487 30.616,61.783 30.729 M27.432 48.526 C 28.689 49.349,29.204 51.417,28.462 52.660 C 27.314 54.584,24.406 54.665,23.257 52.805 C 21.586 50.103,24.804 46.804,27.432 48.526 M101.482 48.631 C 104.770 50.636,102.222 55.568,98.702 54.011 C 96.352 52.971,96.277 49.759,98.575 48.587 C 99.534 48.098,100.636 48.115,101.482 48.631 M37.120 60.907 L 37.120 73.173 31.698 73.173 L 26.276 73.173 25.846 71.307 C 25.000 67.632,24.644 63.830,24.857 60.716 L 25.006 58.528 28.734 56.856 C 31.073 55.808,32.577 55.009,32.771 54.712 C 33.619 53.419,33.538 52.495,32.348 49.867 L 31.792 48.640 34.456 48.640 L 37.120 48.640 37.120 60.907 M68.340 49.174 C 70.662 49.778,71.889 51.007,71.892 52.730 C 71.894 53.995,71.267 54.789,69.712 55.491 C 68.611 55.989,68.436 56.001,61.493 56.069 L 54.400 56.137 54.400 52.495 L 54.400 48.853 60.755 48.853 C 65.719 48.853,67.380 48.923,68.340 49.174 M65.944 66.776 C 67.095 67.096,68.456 68.096,69.154 69.135 C 69.887 70.227,70.316 71.647,71.332 76.351 C 72.190 80.327,72.742 81.627,74.288 83.319 C 76.203 85.414,75.759 85.333,85.325 85.333 C 89.906 85.333,93.653 85.406,93.653 85.496 C 93.653 85.657,90.498 89.387,90.362 89.387 C 90.323 89.387,88.675 89.042,86.700 88.620 C 81.123 87.429,80.922 87.569,79.642 93.546 L 78.819 97.386 78.076 97.752 C 76.836 98.364,72.806 99.624,70.717 100.054 C 67.265 100.764,63.508 101.004,60.206 100.725 C 54.577 100.248,47.123 98.064,46.832 96.805 C 46.770 96.538,46.395 94.810,46.000 92.964 C 45.604 91.118,45.123 89.367,44.931 89.073 C 44.008 87.665,43.037 87.578,38.767 88.523 C 37.150 88.881,35.739 89.173,35.631 89.173 C 35.428 89.173,32.427 85.703,32.427 85.469 C 32.427 85.396,39.555 85.311,48.267 85.281 L 64.107 85.227 64.164 79.600 C 64.204 75.627,64.149 73.886,63.977 73.680 C 63.785 73.448,62.763 73.387,59.067 73.387 L 54.400 73.387 54.400 69.973 L 54.400 66.560 59.787 66.561 C 62.749 66.562,65.520 66.659,65.944 66.776 M41.536 92.365 C 44.055 93.900,42.847 97.922,39.868 97.919 C 36.813 97.917,35.681 93.932,38.284 92.344 C 39.145 91.819,40.658 91.829,41.536 92.365 M87.662 92.533 C 88.897 93.438,89.308 95.321,88.543 96.575 C 86.534 99.870,81.510 97.251,83.188 93.784 C 84.013 92.081,86.206 91.467,87.662 92.533 " stroke="none" fill="black" fill-rule="evenodd"></path></svg>
